src/img/icons/icon-support.svg

<svg width="60" height="60" viewBox="0 0 60 60" fill="none">
<g clip-path="url(#clip0_0_1368)">
<path fill-rule="evenodd" clip-rule="evenodd" d="M0 -6e-05H60V59.9998H0V-6e-05Z" fill="#FE3E57"/>
<path fill-rule="evenodd" clip-rule="evenodd" d="M42.3839 29.6764C41.9948 29.326 41.4654 29.1094 40.9315 29.082C40.3252 29.0522 39.7572 29.2624 39.3342 29.6761L36.4438 32.4683C36.3866 32.3724 36.3215 32.2814 36.2482 32.1968C35.8926 31.784 35.3725 31.5573 34.7842 31.5573H30.7379C29.9748 31.5573 29.2306 31.4606 28.5258 31.2705C26.6881 30.7739 24.9323 31.1368 23.4484 32.3193C22.8446 32.8006 22.4044 33.3233 22.1261 33.7056L21.4006 33.0176C21.3051 32.9266 21.1758 32.8759 21.0427 32.8759C21.0414 32.8759 21.0405 32.8759 21.0393 32.8759C20.9016 32.8767 20.7683 32.9327 20.6727 33.0293L17.1458 36.6049C17.0515 36.7 17 36.8293 17.0029 36.9622C17.0059 37.0947 17.0628 37.2211 17.1613 37.3126L23.1267 42.8588C23.2255 42.9515 23.3523 42.997 23.4791 42.997C23.6122 42.997 23.7455 42.9462 23.8456 42.8459L27.3394 39.3456C27.4348 39.2506 27.4878 39.1193 27.4853 38.9856C27.4828 38.8543 27.4261 38.727 27.3293 38.6356L27.0251 38.3472L27.7214 38.2711C28.1426 38.2224 28.5711 38.1986 28.9951 38.1986H35.1514C36.1518 38.1986 37.0014 37.9847 37.6768 37.5635C37.6824 37.5598 37.688 37.5562 37.6936 37.5526C37.9356 37.3887 38.1552 37.1942 38.3459 36.9743L42.4947 32.2085C43.2046 31.393 43.1601 30.376 42.3839 29.6764ZM23.4659 41.7955L18.2391 36.936L21.0547 34.0817L26.251 39.0057L23.4659 41.7955ZM41.7154 31.5617L37.5667 36.3283C37.4351 36.4793 37.2841 36.6138 37.1177 36.7278C36.6106 37.0411 35.9491 37.1998 35.1514 37.1998H28.995C28.5317 37.1998 28.0635 37.2264 27.6053 37.2779L26.0746 37.4463L22.8695 34.4091C23.0922 34.0869 23.5018 33.5658 24.095 33.093C25.3282 32.1102 26.7271 31.8203 28.253 32.2327C29.0466 32.4469 29.8826 32.5557 30.7379 32.5557H34.7842C35.5109 32.5557 35.7049 33.1707 35.7049 33.5332C35.7049 33.799 35.6176 34.0519 35.4654 34.2263C35.3004 34.416 35.0657 34.5123 34.7681 34.5123H31.2458C30.9635 34.5123 30.7345 34.7362 30.7345 35.0112C30.7345 35.2875 30.9635 35.5111 31.2458 35.5111H34.7681C35.3626 35.5111 35.8871 35.2839 36.2449 34.8731C36.5426 34.5308 36.7123 34.0813 36.7266 33.6012L40.0556 30.3841C40.5313 29.9201 41.2746 30.0357 41.6906 30.4111C41.9055 30.604 42.1947 31.0115 41.7154 31.5617ZM29.651 34.8787C29.5865 34.6105 29.3115 34.4438 29.0365 34.507C28.7615 34.5695 28.5908 34.8381 28.6553 35.1063L28.6601 35.1269C28.7155 35.3572 28.9256 35.5127 29.1575 35.5127C29.1962 35.5127 29.2357 35.5083 29.2747 35.499C29.5498 35.4362 29.7204 35.1675 29.6559 34.8989L29.651 34.8787ZM20.4592 28.5326H25.442C25.7134 28.5326 25.9645 28.4477 26.1687 28.3015C26.373 28.4477 26.624 28.5326 26.8956 28.5326H31.8786C32.1498 28.5326 32.4007 28.4477 32.605 28.3015C32.8093 28.4477 33.0605 28.5326 33.3317 28.5326H38.3146C38.9972 28.5326 39.5526 27.9906 39.5526 27.324V25.0553C39.5526 24.0364 38.9685 23.1507 38.0942 22.7141C38.5178 22.2155 38.7731 21.576 38.7731 20.8784C38.7731 19.2908 37.4498 17.9975 35.8232 17.9975C34.1968 17.9975 32.8735 19.2908 32.8735 20.8784C32.8735 21.576 33.1285 22.2159 33.5521 22.7141C33.1744 22.9034 32.8508 23.1761 32.605 23.5068C32.3594 23.1761 32.0359 22.903 31.6579 22.7141C32.0816 22.2159 32.3365 21.576 32.3365 20.8784C32.3365 19.2908 31.0133 17.9975 29.3868 17.9975C27.7603 17.9975 26.437 19.2908 26.437 20.8784C26.437 21.576 26.6924 22.2159 27.1159 22.7146C26.7379 22.9034 26.4144 23.1761 26.1687 23.5072C25.9229 23.1761 25.5994 22.9034 25.2215 22.7141C25.6452 22.2159 25.9002 21.576 25.9002 20.8784C25.9002 19.2908 24.5769 17.9975 22.9503 17.9975C21.324 17.9975 20.0008 19.2908 20.0008 20.8784C20.0008 21.576 20.2559 22.2159 20.6796 22.7146C19.8053 23.1507 19.2211 24.0367 19.2211 25.0557V27.324C19.2211 27.9906 19.7766 28.5326 20.4592 28.5326ZM35.8234 18.9968C36.8858 18.9968 37.7504 19.8409 37.7504 20.8784C37.7504 21.9159 36.8858 22.76 35.8234 22.76C34.7607 22.76 33.8965 21.9159 33.8965 20.8784C33.8963 19.8409 34.7607 18.9968 35.8234 18.9968ZM34.4949 23.4488C34.8944 23.6461 35.3455 23.7589 35.8232 23.7589C36.301 23.7589 36.7523 23.6461 37.1516 23.4488C37.9463 23.5841 38.53 24.2526 38.53 25.0553V27.324C38.53 27.44 38.4334 27.5346 38.3146 27.5346H33.3317C33.2131 27.5346 33.1166 27.44 33.1166 27.324V25.0553C33.1163 24.253 33.7003 23.5841 34.4949 23.4488ZM29.3869 18.9968C30.4495 18.9968 31.3139 19.8409 31.3139 20.8784C31.3139 21.9159 30.4495 22.76 29.3869 22.76C28.3245 22.76 27.46 21.9159 27.46 20.8784C27.46 19.8409 28.3245 18.9968 29.3869 18.9968ZM28.0585 23.4488C28.458 23.6461 28.9093 23.7589 29.3869 23.7589C29.8647 23.7589 30.3157 23.6461 30.7155 23.4488C31.5099 23.5841 32.0937 24.2526 32.0937 25.0553V27.324C32.0937 27.44 31.9971 27.5346 31.8786 27.5346H26.8957C26.7769 27.5346 26.6803 27.44 26.6803 27.324V25.0553C26.6803 24.253 27.2641 23.5841 28.0585 23.4488ZM22.9505 18.9968C24.0131 18.9968 24.8775 19.8409 24.8775 20.8784C24.8775 21.9159 24.0131 22.76 22.9505 22.76C21.8882 22.76 21.0236 21.9159 21.0236 20.8784C21.0236 19.8409 21.8882 18.9968 22.9505 18.9968ZM20.2438 25.0553C20.2438 24.253 20.8277 23.5841 21.6224 23.4488C22.022 23.6461 22.4728 23.7589 22.9505 23.7589C23.4284 23.7589 23.8794 23.6461 24.279 23.4488C25.0738 23.5841 25.6575 24.2526 25.6575 25.0553V27.324C25.6575 27.44 25.5608 27.5346 25.442 27.5346H20.4592C20.3404 27.5346 20.2438 27.44 20.2438 27.324V25.0553Z" fill="white"/>
</g>
<defs>
<clipPath id="clip0_0_1368">
<rect width="60" height="60" fill="white"/>
</clipPath>
</defs>
</svg>

<svg width="60" height="60" fill="none"><g clip-path="url(#clip0_0_1368)" fill-rule="evenodd" clip-rule="evenodd"><path d="M0 0h60v60H0V0z" fill="#FE3E57"/><path d="M42.384 29.676a2.387 2.387 0 00-1.453-.594 2.108 2.108 0 00-1.597.594l-2.89 2.792a1.901 1.901 0 00-.196-.271c-.355-.413-.875-.64-1.464-.64h-4.046a8.497 8.497 0 01-2.212-.287c-1.838-.496-3.594-.133-5.078 1.05a7.25 7.25 0 00-1.322 1.386l-.725-.688a.52.52 0 00-.358-.142h-.004a.523.523 0 00-.366.153l-3.527 3.576a.493.493 0 00.015.708l5.966 5.546a.517.517 0 00.719-.013l3.493-3.5a.498.498 0 00.146-.36.497.497 0 00-.156-.35l-.304-.289.696-.076c.422-.049.85-.072 1.274-.072h6.156c1 0 1.85-.214 2.526-.636l.017-.01a3.35 3.35 0 00.652-.579l4.149-4.765c.71-.816.665-1.833-.111-2.533zm-18.918 12.12l-5.227-4.86 2.816-2.854 5.196 4.924-2.785 2.79zm18.25-10.234l-4.15 4.766a2.38 2.38 0 01-.448.4c-.507.313-1.169.472-1.967.472h-6.156a12.5 12.5 0 00-1.39.078l-1.53.168-3.206-3.037a6.283 6.283 0 011.226-1.316c1.233-.983 2.632-1.273 4.158-.86.794.214 1.63.323 2.485.323h4.046c.727 0 .92.615.92.977 0 .266-.086.519-.239.693-.165.19-.4.286-.697.286h-3.522a.506.506 0 00-.511.5c0 .276.229.5.51.5h3.523c.595 0 1.12-.228 1.477-.639.298-.342.467-.792.482-1.272l3.329-3.217c.475-.464 1.219-.348 1.635.027.215.193.504.6.024 1.15zM29.65 34.879a.512.512 0 00-.614-.372.498.498 0 00-.382.6l.005.02a.51.51 0 00.615.372.499.499 0 00.38-.6l-.004-.02zm-9.192-6.346h4.983c.271 0 .523-.085.727-.232.204.147.455.232.727.232h4.983c.27 0 .522-.085.726-.232.204.147.456.232.727.232h4.983c.682 0 1.238-.542 1.238-1.209v-2.269a2.612 2.612 0 00-1.459-2.34 2.825 2.825 0 00.68-1.837c0-1.587-1.324-2.88-2.95-2.88-1.627 0-2.95 1.293-2.95 2.88 0 .698.255 1.338.678 1.836a2.67 2.67 0 00-.947.793 2.661 2.661 0 00-.947-.793 2.823 2.823 0 00.678-1.836c0-1.587-1.323-2.88-2.95-2.88-1.626 0-2.949 1.293-2.949 2.88 0 .698.255 1.338.679 1.837a2.657 2.657 0 00-.947.792 2.665 2.665 0 00-.948-.793 2.824 2.824 0 00.68-1.836c0-1.587-1.324-2.88-2.95-2.88-1.627 0-2.95 1.293-2.95 2.88 0 .698.255 1.338.679 1.837a2.611 2.611 0 00-1.459 2.34v2.269c0 .667.556 1.209 1.238 1.209zm15.364-9.536c1.063 0 1.927.844 1.927 1.881 0 1.038-.864 1.882-1.927 1.882-1.062 0-1.926-.844-1.926-1.882 0-1.037.864-1.881 1.926-1.881zm-1.328 4.452a2.993 2.993 0 002.657 0 1.634 1.634 0 011.378 1.606v2.269c0 .116-.097.21-.215.21h-4.983a.213.213 0 01-.215-.21v-2.269c0-.802.583-1.47 1.378-1.606zm-5.108-4.452c1.063 0 1.927.844 1.927 1.881 0 1.038-.864 1.882-1.927 1.882-1.063 0-1.927-.844-1.927-1.882 0-1.037.864-1.881 1.927-1.881zm-1.329 4.452a2.994 2.994 0 002.657 0 1.634 1.634 0 011.379 1.606v2.269c0 .116-.097.21-.215.21h-4.983a.213.213 0 01-.216-.21v-2.269c0-.802.584-1.47 1.378-1.606zm-5.107-4.452c1.062 0 1.927.844 1.927 1.881 0 1.038-.865 1.882-1.927 1.882-1.063 0-1.927-.844-1.927-1.882 0-1.037.864-1.881 1.927-1.881zm-2.707 6.058c0-.802.584-1.47 1.378-1.606a2.992 2.992 0 002.657 0 1.634 1.634 0 011.378 1.606v2.269c0 .116-.096.21-.215.21h-4.983a.213.213 0 01-.215-.21v-2.269z" fill="#fff"/></g><defs><clipPath id="clip0_0_1368"><path fill="#fff" d="M0 0h60v60H0z"/></clipPath></defs></svg>
